X:2514
T:Hayden's Fancy
O:england
M:4/4
L:1/8
K:G
edBA G3A|B2Ac BEEF|G3E DEGA|BGdB A2Bd|
edBA G3A|B2Ac BEEF|G3 E DEGB|B2Ac BGG2:|
dedc BGBd|e2af gfed|dedc BGBd|egfa g3e|
dedc BGBd|e2 af gfed|d^cdf e3g|fgaf gfed|


